X: 2
T: The Hare's Paw
R: reel
M: 4/4
L: 1/8
K: Gmaj
~F3A G2 FG|AD D/D/D FDCD|~F3G AGAc|dfec dcAG|~F3A G2 FG|AD D/D/D FDCD|~F3G AGAc|dfec d3 e||f2 ef dcAB|c2 dc Acde|f2 ef dcAc|dfec d3 e|f2 ef dcAB|c2 dc A~c3|~d3e dcAc|dfec dcAG||~G3B A2 GA|B~E3 GEDE|~G3A BABd|egfd edBA~G3B A2 GA|B~E3 GEDE|~G3A BABd|egfd e3 f||g2 fg edBc|d2 ed Bdef|g2 fg edBd|egfd e3f|g2 fg edBc|d2 ed B~d3|e3f edBd|egfd edBA||


Tune 1462	Setting 14855

